images/ic_temperature.svg

<svg width="24" height="24" viewBox="0 0 24 24" fill="none" xmlns="http://www.w3.org/2000/svg">
<path d="M10.3747 21.3744C8.44862 21.3744 6.88159 19.8074 6.88159 17.8813C6.88159 15.9552 8.44862 14.3882 10.3747 14.3882C12.3008 14.3882 13.8678 15.9552 13.8678 17.8813C13.8678 19.8074 12.3008 21.3744 10.3747 21.3744ZM10.3747 15.7549C9.20219 15.7549 8.24828 16.7088 8.24828 17.8813C8.24828 19.0538 9.20219 20.0077 10.3747 20.0077C11.5472 20.0077 12.5012 19.0538 12.5012 17.8813C12.5012 16.7088 11.5472 15.7549 10.3747 15.7549Z" fill="#1B76BC"/>
<path d="M10.3763 24C10.3266 24 10.2769 23.9994 10.2269 23.9982C6.93019 23.9203 4.25166 21.1726 4.25611 17.8732C4.25906 15.689 5.4007 13.7108 7.26309 12.6134V2.75887C7.26319 1.23764 8.50073 0 10.0221 0H10.7273C12.2486 0 13.4862 1.23764 13.4862 2.75887C13.4862 3.13627 13.1803 3.44222 12.8029 3.44222C12.4254 3.44222 12.1195 3.13631 12.1195 2.75887C12.1195 1.9912 11.495 1.36664 10.7273 1.36664H10.022C9.25434 1.36664 8.62978 1.9912 8.62978 2.75887V13.0191C8.62978 13.2779 8.48363 13.5144 8.25225 13.6302C6.63281 14.4405 5.62528 16.067 5.62289 17.875C5.61947 20.4375 7.69931 22.5714 10.2593 22.632C11.5507 22.6615 12.7715 22.1828 13.6946 21.2813C14.618 20.3794 15.1266 19.172 15.1266 17.8815C15.1266 17.106 14.9356 16.3368 14.5744 15.6571C14.3973 15.3238 14.5239 14.9101 14.8572 14.733C15.1905 14.556 15.6042 14.6826 15.7812 15.0158C16.247 15.8922 16.4932 16.8832 16.4932 17.8815C16.4932 19.5432 15.8384 21.0978 14.6495 22.2591C13.4964 23.385 11.9839 24 10.3763 24Z" fill="#1B76BC"/>
<path d="M10.3745 13.2763C9.99712 13.2763 9.69116 12.9704 9.69116 12.593V7.07861C9.69116 6.70122 9.99707 6.39526 10.3745 6.39526C10.7519 6.39526 11.0578 6.70117 11.0578 7.07861V12.593C11.0578 12.9704 10.7519 13.2763 10.3745 13.2763Z" fill="#1B76BC"/>
<path d="M19.0605 9.10807H13.486V7.67308H16.5246C16.902 7.67308 17.2079 7.36718 17.2079 6.98974C17.2079 6.6123 16.902 6.3064 16.5246 6.3064H12.8711C12.8594 6.3064 12.8481 6.30757 12.8366 6.30818C12.8253 6.30761 12.8142 6.30649 12.8027 6.30649C12.4253 6.30649 12.1194 6.6124 12.1194 6.98983V12.5931C12.1194 12.9705 12.4253 13.2765 12.8027 13.2765C12.8143 13.2765 12.8256 13.2753 12.8369 13.2748C12.8483 13.2753 12.8596 13.2765 12.8711 13.2765H16.5246C16.9019 13.2765 17.2079 12.9706 17.2079 12.5931C17.2079 12.2157 16.902 11.9098 16.5246 11.9098H13.486V10.4748H19.0605C19.4379 10.4748 19.7438 10.1689 19.7438 9.79146C19.7438 9.41402 19.4379 9.10807 19.0605 9.10807Z" fill="#1B76BC"/>
</svg>

<svg xmlns="http://www.w3.org/2000/svg" viewBox="0 0 24 24" fill="#1b76bc"><path d="M10.375 21.374a3.5 3.5 0 0 1-3.493-3.493 3.5 3.5 0 0 1 3.493-3.493 3.5 3.5 0 0 1 3.493 3.493 3.5 3.5 0 0 1-3.493 3.493zm0-5.62a2.13 2.13 0 0 0-2.126 2.126 2.13 2.13 0 0 0 2.126 2.126 2.13 2.13 0 0 0 2.127-2.126 2.13 2.13 0 0 0-2.126-2.126zM10.376 24a6.22 6.22 0 0 1-.149-.002c-3.297-.078-5.975-2.826-5.97-6.125.003-2.184 1.145-4.162 3.007-5.26V2.76A2.76 2.76 0 0 1 10.022 0h.705c1.52 0 2.76 1.238 2.76 2.76 0 .377-.306.683-.683.683s-.683-.306-.683-.683c0-.768-.624-1.392-1.392-1.392h-.705c-.768 0-1.392.625-1.392 1.392v10.26a.68.68 0 0 1-.378.61 4.73 4.73 0 0 0-2.629 4.245 4.78 4.78 0 0 0 4.636 4.757 4.73 4.73 0 0 0 3.435-1.35 4.7 4.7 0 0 0 1.432-3.4 4.74 4.74 0 0 0-.552-2.224c-.177-.333-.05-.747.283-.924s.747-.05.924.283c.466.876.712 1.867.712 2.866a6.07 6.07 0 0 1-1.844 4.378A6.07 6.07 0 0 1 10.376 24zm-.002-10.724c-.377 0-.683-.306-.683-.683V7.078c0-.377.306-.683.683-.683s.683.306.683.683v5.514c0 .377-.306.683-.683.683zm8.686-4.168h-5.574V7.673h3.04c.377 0 .683-.306.683-.683s-.306-.683-.683-.683H12.87c-.012 0-.023.001-.034.002l-.034-.002c-.377 0-.683.306-.683.683v5.603c0 .377.306.683.683.683.012 0 .023-.001.034-.002l.034.002h3.654c.377 0 .683-.306.683-.683s-.306-.683-.683-.683h-3.04v-1.435h5.574c.377 0 .683-.306.683-.683s-.306-.683-.683-.683z"/></svg>
